packages/sources/assets/src/assets/neteller.svg

<svg width="58" height="40" viewBox="0 0 58 40" fill="none" xmlns="http://www.w3.org/2000/svg">
<rect x="0.5" y="0.5" width="57" height="39" rx="3.5" fill="white" stroke="#F3F3F3"/>
<path fill-rule="evenodd" clip-rule="evenodd" d="M51.6213 19.9276C51.3257 20.134 50.8965 20.236 50.3093 20.236H50.0545H49.727L50.1735 17.8206H50.3998H50.6017C51.0891 17.8206 51.4452 17.8992 51.6905 18.0586C51.8822 18.1837 52.1094 18.4313 52.1094 18.9011C52.1094 19.4671 51.8451 19.7716 51.6213 19.9276ZM16.8827 22.959H12.3761L12.6674 21.3802H15.4941L15.8153 19.6019H13.0157L13.2864 18.0393H17.7851L16.8827 22.959ZM54.0491 16.6841C53.3865 16.2292 52.3838 16 51.0692 16H47.6262L46.3464 22.9593H41.8363L42.1255 21.3804H44.8427L45.1658 19.607L42.4502 19.6119L42.741 18.0398H45.5392L45.9115 16.0002H40.2274L39.0126 22.6022H36.9284L38.152 16.0002H35.1804L33.9656 22.6022H31.9334L33.1582 16.0002H30.1896L28.9066 22.9595H24.3644L24.6506 21.3807H27.3801L27.7015 19.6175L24.9762 19.6149L25.2657 18.0398H28.0949L28.4654 16.0002H10.757L9.74895 21.5153L7.74084 16H4.65881L3 25H5.94324L6.94706 19.3334L8.89599 25H19.4453L20.7277 18.0396H22.3784L21.0953 25H48.8538L49.6578 20.6059L50.961 25H53.9059L52.5567 21.4097L52.8647 21.343C53.5434 21.1975 54.0746 20.8839 54.4432 20.4141C54.8125 19.9399 55 19.3311 55 18.5998C55.0002 17.7481 54.6897 17.1218 54.0491 16.6841Z" fill="#8DC640"/>
</svg>

<svg width="58" height="40" fill="none" xmlns="http://www.w3.org/2000/svg"><rect x=".5" y=".5" width="57" height="39" rx="3.5" fill="#fff" stroke="#F3F3F3"/><path fill-rule="evenodd" clip-rule="evenodd" d="M51.621 19.928c-.295.206-.724.308-1.312.308h-.582l.447-2.415h.427c.487 0 .843.078 1.089.238.191.125.418.372.418.842 0 .566-.264.87-.488 1.027Zm-34.738 3.031h-4.507l.291-1.579h2.827l.321-1.778h-2.8l.271-1.563h4.5l-.903 4.92Zm37.166-6.275c-.663-.455-1.665-.684-2.98-.684h-3.443l-1.28 6.96h-4.51l.29-1.58h2.717l.323-1.773-2.716.005.291-1.572h2.798l.372-2.04h-5.684l-1.214 6.602h-2.085L38.152 16H35.18l-1.214 6.602h-2.033L33.158 16H30.19l-1.283 6.96h-4.543l.287-1.58h2.73l.32-1.762-2.725-.003.29-1.575h2.829l.37-2.04H10.757l-1.008 5.515L7.741 16H4.659L3 25h2.943l1.004-5.667L8.896 25h10.55l1.282-6.96h1.65L21.095 25h27.759l.804-4.394L50.96 25h2.945l-1.35-3.59.309-.067c.678-.145 1.21-.46 1.578-.929.37-.474.557-1.083.557-1.814 0-.852-.31-1.478-.95-1.916Z" fill="#8DC640"/></svg>
